!!!!SEGMENT: pl-sa--190-a-v-20--009_pych-leopold--missa-in-d-dona-nobis.krn
!!!cenid: 17xx:1581
!!!COM: Pych, Leopold
!!!COM-rismID: pe30018039
!!!CDT: <1758->1774
!!!CNT:
!!!OPR: Missa in D
!!!OTL: Dona nobis
!!!OMV: 009
!!!PDT:
!!!AGN: Sacred; Mass
!!!SMS-siglum: PL-SA
!!!SMS-shelfmark: 190/A V 20
!!!SMS-shelfwork: 001-009 M
!!!SMS-variant:
!!!SMS-altvar:
!!!NIFC-rismSourceID: 1001035913
!!!NIFC-islandoraID:
!!!URL-pdf-islandora:
!!!URL-scan: https://bc.bdsandomierz.pl/dlibra/publication/1527/edition/1495/content @EN{Scan in the Sandomierz Diocese Digital Library} @PL{Skany w portalu Cyfrowa Biblioteka Diecezjalna w Sandomierzu}
!!!ONB-nifc: UWAGA: części Mszy: 1. Sinfonia, 2. Kyrie, 3. Gloria, 4. Credo, 5. Sanctus, 6. Osanna, 7. Benedictus, 8. Agnus Dei, 9. Dona nobis
!!!AIN: 1 alto 1 bass 2 cor 1 organ 1 soprn 1 tenor 2 violn
!!!key: D
**kern	**fba	**kern	**kern	**kern	**text	**kern	**text	**kern	**text	**kern	**kern	**kern
*	*	*group3	*group3	*group2	*	*group2	*	*group2	*	*group2	*group1	*group1
*part9	*part9	*part8	*part7	*part6	*part6	*part5	*part5	*part4	*part4	*part3	*part2	*part1
*staff9	*	*staff8	*staff7	*staff6	*staff6	*staff5	*staff5	*staff4	*staff4	*staff3	*staff2	*staff1
*I"Fundamento	*	*I"Violino 2do:	*I"Violino Primo:	*I"Baſso	*	*I"Tenore.	*	*I"Alto	*	*I"Canto	*I"Cornu 2do Ex D:	*I"Cornu Primo. Ex D#
*I'bc	*	*I'vl 2	*I'vl 1	*I'B	*	*I'T	*	*I'A	*	*I'S	*I'cor 2 in D	*I'cor 1 in D#
*Iorgan	*	*Ivioln	*Ivioln	*Ibass	*	*Itenor	*	*Ialto	*	*Isoprn	*Icor	*Icor
*ICklav	*	*ICstr	*ICstr	*ICvox	*	*ICvox	*	*ICvox	*	*ICvox	*ICbras	*ICbras
*IGcont	*	*IGacmp	*IGacmp	*IGcoro	*	*IGcoro	*	*IGcoro	*	*IGcoro	*IGacmp	*IGacmp
*clefF4	*	*clefG2	*clefG2	*clefF4	*	*clefC4	*	*clefC3	*	*	*clefG2	*clefG2
*	*	*	*	*	*	*	*	*	*	*	*ITrd-1c-2	*ITrd-1c-2
*k[f#c#]	*	*k[f#c#]	*k[f#c#]	*k[f#c#]	*	*k[c#f#]	*	*k[f#c#]	*	*	*k[f#c#]	*k[f#c#]
*D:	*	*D:	*D:	*D:	*	*D:	*	*D:	*	*	*D:	*D:
*M2/2	*	*M2/2	*M2/2	*M2/2	*	*M2/2	*	*M2/2	*	*	*M2/2	*M2/2
*met(C|r)	*	*met(C|r)	*met(C|r)	*met(C|r)	*	*met(C|r)	*	*met(C|r)	*	*	*met(C|r)	*met(C|r)
*all\right	*	*all\right	*all\right	*all\right	*	*all\right	*	*all\right	*	*	*all\right	*all\right
=1	=1	=1	=1	=1	=1	=1	=1	=1	=1	=1	=1	=1
*2\right	*	*	*2\right	*2\right	*	*2\right	*	*2\right	*	*	*2\right	*2\right
!	!	!	!LO:TX:a:t=Dona nobis ut Kirie allabreve	!	!	!	!	!	!	!	!	!
!	!	!LO:TX:a:t=Dona nobis ut [] allabreve kirie	!LO:TX:t=P:problem=przy kluczu ff# f# cc#	!	!	!	!	!	!	!LO:TX:t=P:problem=zgodnie z RISM "S part missing"	!LO:TX:a:i:t=allabre	!
2d\	.	0ryy	2dd\yy	2d\	Do-	2d\	Do-	2a\	do-	1ryy	2dd\	2ff#\
2c#\	6	.	2aa\yy	2c#\	-na	2e\	-na	2a\	-na	.	2a/	2ee\
!LO:LB:g=original	!	!	!	!	!	!	!	!	!	!	!	!
=2	=2	=2	=2	=2	=2	=2	=2	=2	=2	=2	=2	=2
2d\	.	.	4ff#\yy	2d\	no-	2f#\	no-	2a\	no-	1ryy	2dd\	2ff#\
.	.	.	4dd\yy	.	.	.	.	.	.	.	.	.
2F#\	.	.	[y<2ddd\yy	2F#\	-bis	2d\	-bis	2a\	-bis	.	2ff#\	2aa\
!	!	!	!	!	!	!	!	!LO:LB:g=original	!	!	!	!
=3	=3	=3	=3	=3	=3	=3	=3	=3	=3	=3	=3	=3
2G\	6 5	1ryy	4ddd\]yy	2G\	pa-	1e	pa-	2b\	pa-	1ryy	2ee\	2gg\
.	.	.	8ccc#\Lyy	.	.	.	.	.	.	.	.	.
.	.	.	8bb\Jyy	.	.	.	.	.	.	.	.	.
2A\	.	.	4aa\yy	2A\	.	.	.	2a\	.	.	2a/	2ee\
.	.	.	4gg\yy	.	.	.	.	.	.	.	.	.
=4	=4	=4	=4	=4	=4	=4	=4	=4	=4	=4	=4	=4
2D/	.	2a/yy	4ff#\yy	2D/	.	2.f#\	.	2.a\	.	1ryy	2.dd\	2.ff#\
.	.	.	4dd\yy	.	.	.	.	.	.	.	.	.
*	*	*2\right	*	*	*	*	*	*	*	*	*	*
2BB/	2	2dd\yy	4ff#\yy	2BB/	.	.	.	.	.	.	.	.
.	6\	.	4gg#X\yy	.	.	4e\	.	4g#X\	.	.	4ee\	4ee\
=5	=5	=5	=5	=5	=5	=5	=5	=5	=5	=5	=5	=5
4AA/	3_	4cc#\yy	2aa\yy	2AA/	-cem	2e\	-cem	2a\	-cem	1ryy	2a/	2ee\
8C#/L	.	4a/yy	.	.	.	.	.	.	.	.	.	.
8BB/J	.	.	.	.	.	.	.	.	.	.	.	.
4C#/	x	[y<2aa\yy	4ryy	2r	.	2c#\	da	2a\	da	.	2a/	2ee\
4AA/	.	.	4ccc#\yy	.	.	.	.	.	.	.	.	.
!	!	!	!	!	!	!LO:LB:g=original	!	!	!	!	!	!
=6	=6	=6	=6	=6	=6	=6	=6	=6	=6	=6	=6	=6
2D\	6 5	4aa\]yy	2bb\yy	0r	.	1B	pa-	2a\	pa-	1ryy	2a/	2ff#\
.	.	8gg#X\Lyy	.	.	.	.	.	.	.	.	.	.
.	.	8ff#\Jyy	.	.	.	.	.	.	.	.	.	.
2E\	#	4ee\yy	2gg#X\yy	.	.	.	.	2g#X\	.	.	2ee\	2gg#X\
.	.	4dd\yy	.	.	.	.	.	.	.	.	.	.
!	!	!	!	!	!	!	!	!	!	!	!	!LO:LB:g=original
=7	=7	=7	=7	=7	=7	=7	=7	=7	=7	=7	=7	=7
2AA/	.	4cc#\yy	4aa\yy	.	.	2c#\	-cem	2a\	-cem	1ryy	2ee\	2aa\
.	.	4a\yy	4a/yy	.	.	.	.	.	.	.	.	.
2r	.	4b\yy	2ggn\yy	.	.	2r	.	2r	.	.	4r	4r
.	.	4cc#\yy	.	.	.	.	.	.	.	.	4ee\	4ggn\
!	!	!	!LO:LB:g=original	!	!	!	!	!	!	!	!	!
=8	=8	=8	=8	=8	=8	=8	=8	=8	=8	=8	=8	=8
2D\	.	2.dd\yy	4ff#\yy	2D/	do-	0r	.	00r	.	1ryy	2dd\	2ff#\
.	.	.	4a/yy	.	.	.	.	.	.	.	.	.
2A\	.	.	2eeMy\yy	2A\	-na	.	.	.	.	.	2a/	2ee\
.	.	4cc#\yy	.	.	.	.	.	.	.	.	.	.
!	!	!LO:LB:g=original	!	!	!	!	!	!	!	!	!	!
=9	=9	=9	=9	=9	=9	=9	=9	=9	=9	=9	=9	=9
4F#\	.	4dd\yy	2dd\yy	4F#\	no-	.	.	.	.	1ryy	2f#/	2dd\
4D\	.	4a/yy	.	4D\	.	.	.	.	.	.	.	.
[<2d\	.	4f#/yy	4ryy	[2d\	-bis	.	.	.	.	.	2r	2r
.	.	4a/yy	4ff#\yy	.	.	.	.	.	.	.	.	.
!	!	!	!	!LO:LB:g=original	!	!	!	!	!	!	!LO:LB:g=original	!
=10	=10	=10	=10	=10	=10	=10	=10	=10	=10	=10	=10	=10
!	!	!	!	!LO:TX:a:t=P:problem=brak zakończenia ligatury	!	!	!	!	!	!	!	!
4d\]	n4 2	2g/yy	2ee\yy	4d\]	pa-	1r	.	.	.	1ryy	00r	00r
8c#\L	.	.	.	8c#\L	.	.	.	.	.	.	.	.
8B\J	.	.	.	8B\J	.	.	.	.	.	.	.	.
4A\	3_	4e/yy	2cc#\yy	4A\	.	.	.	.	.	.	.	.
4G\	.	[y4a/yy	.	4G\	.	.	.	.	.	.	.	.
=11	=11	=11	=11	=11	=11	=11	=11	=11	=11	=11	=11	=11
4F#\	6	4a/]yy	4dd\yy	4F#\	.	2A\	Do-	.	.	1ryy	.	.
4D\	.	4f#/yy	2dd\yy	4D\	.	.	.	.	.	.	.	.
4F#\	6 5	4a/yy	.	4F#\	.	2d\	-na	.	.	.	.	.
4G#X\	.	4b/yy	8cc#\Lyy	4G#X\	.	.	.	.	.	.	.	.
.	.	.	8b\Jyy	.	.	.	.	.	.	.	.	.
!LO:LB:g=original	!	!	!	!	!	!	!	!	!	!	!	!
=12	=12	=12	=12	=12	=12	=12	=12	=12	=12	=12	=12	=12
2A\	.	8a/Lyy	8cc#\Lyy	2A\	-cem	4c#\	no-	0r	.	1ryy	.	.
.	.	8b/Jyy	8dd\Jyy	.	.	.	.	.	.	.	.	.
.	.	2cc#\yy	2ee\yy	.	.	4A\	.	.	.	.	.	.
2C#/	6	.	.	2C#/	da	[<2a\	-bis	.	.	.	.	.
.	.	4a/yy	4a/yy	.	.	.	.	.	.	.	.	.
=13	=13	=13	=13	=13	=13	=13	=13	=13	=13	=13	=13	=13
2D\	6 5	2a/yy	1bMyy	(2D/	pa-	4a\]	pa-	.	.	1ryy	.	.
.	.	.	.	.	.	8g#X\L	.	.	.	.	.	.
.	.	.	.	.	.	8f#\J	.	.	.	.	.	.
2E\	#	2g#X/yy	.	2E/)	.	4e\	.	.	.	.	.	.
.	.	.	.	.	.	4d\	.	.	.	.	.	.
=14	=14	=14	=14	=14	=14	=14	=14	=14	=14	=14	=14	=14
2AA/	.	4a/yy	4a/yy	2AA/	-cem	4c#\	-cem	1r	.	1ryy	1r	1r
.	.	4cc#/yy	4ryy	.	.	4A\	da	.	.	.	.	.
2r	.	4dd\yy	2ryy	2r	.	4B\	pa-	.	.	.	.	.
.	.	4ee\yy	.	.	.	4c#\	.	.	.	.	.	.
=15	=15	=15	=15	=15	=15	=15	=15	=15	=15	=15	=15	=15
2d\	.	2ff#\yy	2dd\yy	2d\	do-	2d\	-cem	2d\	do-	1ryy	2dd\	2ff#\
2c#\	6	2ee\yy	2aa\yy	2c#\	-na	2e\	da	2a\	-na	.	2a/	2ee\
!	!	!	!	!	!	!LO:LB:g=original	!	!	!	!	!	!
=16	=16	=16	=16	=16	=16	=16	=16	=16	=16	=16	=16	=16
2d\	.	2ff#\yy	4ff#\yy	2d\	no-	2f#\	pa-	4f#\	no-	1ryy	2dd\	2ff#\
.	.	.	4dd\yy	.	.	.	.	4d\	-bis	.	.	.
2F#\	.	2a/yy	[y<2ddd\yy	2F#\	-bis	2A/	.	[2dd\	pa-	.	2ff#\	2aa\
=17	=17	=17	=17	=17	=17	=17	=17	=17	=17	=17	=17	=17
2G\	.	2b\yy	4ddd\]yy	(2G\	pa-	2B\	.	4dd\]	.	1ryy	2ee\	2gg\
.	.	.	8ccc#\Lyy	.	.	.	.	8cc#\L	.	.	.	.
.	.	.	8bb\Jyy	.	.	.	.	8b\J	.	.	.	.
2A\	.	2cc#\yy	4aa\yy	2A\)	.	2c#\	.	(4a\	.	.	2a/	2ee\
.	.	.	4gg\yy	.	.	.	.	4g\)	.	.	.	.
!	!	!	!	!LO:LB:g=original	!	!	!	!LO:LB:g=original	!	!	!	!
=18	=18	=18	=18	=18	=18	=18	=18	=18	=18	=18	=18	=18
2D\	.	2dd\yy	4ff#\yy	2D\	-cem	2d\	-cem	2f#\	-cem	1ryy	4dd\	4dd\
.	.	.	8dd\Lyy	.	.	.	.	.	.	.	8dd\L	8dd\L
*	*	*	*custos:ee	*	*	*	*	*	*	*	*	*
!	!	!	!LO:TX:t=P:problem=wszystkie custos użyte jako łamanie pięciolinii	!	!	!	!	!	!	!	!	!
.	.	.	8ff#\Jyy	.	.	.	.	.	.	.	8dd\J	8dd\J
!	!	!	!LO:LB:g=original	!	!	!	!	!	!	!	!	!
2F#\	6	4ryy	4aa\yy	2F#\	da	[<2d\	da	[<2a\	da	.	4dd\	4dd\
.	.	[y<4aa\yy	4cccn\yy	.	.	.	.	.	.	.	4dd\	4dd\
!	!	!LO:LB:g=original	!	!	!	!	!	!	!	!	!	!
=19	=19	=19	=19	=19	=19	=19	=19	=19	=19	=19	=19	=19
!	!	!LO:TX:a:t=P:problem=brak zakończenia ligatury	!	!	!	!	!	!	!	!	!	!
2.G\	9	4aa\]yy	4bb\yy	2.G\	pa-	1d]	.	2a\]	.	1ryy	2dd\	2dd\
.	8	8gg\Lyy	2bb\yy	.	.	.	.	.	.	.	.	.
.	.	8ff#\Jyy	.	.	.	.	.	.	.	.	.	.
.	.	4ee\yy	.	.	.	.	.	2g\	pa-	.	2r	2r
4F#\	.	4dd\yy	[y<4bb\yy	4F#\	.	.	.	.	.	.	.	.
!	!	!	!	!	!	!	!	!	!	!	!	!LO:LB:g=original
=20	=20	=20	=20	=20	=20	=20	=20	=20	=20	=20	=20	=20
2E\	6 5	2cc#\yy	4bb\]yy	2E\	.	[<1c#	pa-	[<1g	.	1ryy	4r	4r
.	.	.	8cc#\Lyy	.	.	.	.	.	.	.	4gg\	4bb\
.	.	.	8ee\Jyy	.	.	.	.	.	.	.	.	.
2C#/	3	4ryy	4gg\yy	2C#/	.	.	.	.	.	.	4gg\	4bb\
.	.	[y4gg\yy	4bb\yy	.	.	.	.	.	.	.	[4gg\	4bb\
=21	=21	=21	=21	=21	=21	=21	=21	=21	=21	=21	=21	=21
2.F#\	9	4gg\]yy	4aa\yy	2.F#\	.	1c#]	.	2g\]	.	1ryy	4gg\]	2aa\
.	8	8ff#\Lyy	2aa\yy	.	.	.	.	.	.	.	4ff#\	.
.	.	8ee\Jyy	.	.	.	.	.	.	.	.	.	.
.	.	4dd\yy	.	.	.	.	.	2f#\	.	.	2r	2r
4E\	.	4cc#\yy	[y<4aa\yy	4E\	.	.	.	.	.	.	.	.
=22	=22	=22	=22	=22	=22	=22	=22	=22	=22	=22	=22	=22
2D/	6 5	2b\yy	4aa\]yy	2D\	.	[<1B	.	[<1f#	.	1ryy	4r	4r
.	.	.	8b\Lyy	.	.	.	.	.	.	.	4ff#\	4aa\
.	.	.	8dd\Jyy	.	.	.	.	.	.	.	.	.
2BB/	2	4ryy	4ff#\yy	2BB/	.	.	.	.	.	.	4ff#\	4aa\
.	.	[y<4ff#\yy	4aa\yy	.	.	.	.	.	.	.	[4ff#\	4aa\
!	!	!	!	!	!	!	!	!	!	!	!LO:LB:g=original	!
=23	=23	=23	=23	=23	=23	=23	=23	=23	=23	=23	=23	=23
!	!	!	!	!	!	!	!	!	!	!	!LO:TX:a:t=P:problem=brak zakończenia ligatury	!
2.E\	9	4ff#\]yy	4gg\yy	2.E\	.	1B]	.	2f#\]	.	1ryy	4ff#\]	2gg\
.	8	8ee\Lyy	2gg\yy	.	.	.	.	.	.	.	4ee\	.
.	.	8dd\Jyy	.	.	.	.	.	.	.	.	.	.
.	.	4cc#\yy	.	.	.	.	.	2e\	.	.	2r	2r
4D\	.	4b\yy	[y4gg\yy	4D\	.	.	.	.	.	.	.	.
!LO:LB:g=original	!	!	!	!	!	!	!	!	!	!	!	!
=24	=24	=24	=24	=24	=24	=24	=24	=24	=24	=24	=24	=24
2C#/	6 5	2a/yy	4gg\]yy	2C#/	.	[<1A	.	[<1e	.	1ryy	4r	4r
.	.	.	8a\Lyy	.	.	.	.	.	.	.	4ee\	4gg\
.	.	.	8cc#\Jyy	.	.	.	.	.	.	.	.	.
2AA/	.	4ryy	4ee\yy	2AA/	.	.	.	.	.	.	4ee\	4gg\
.	.	[y4ee\yy	4gg\yy	.	.	.	.	.	.	.	[4ee\	4gg\
=25	=25	=25	=25	=25	=25	=25	=25	=25	=25	=25	=25	=25
2D/	6 5	4ee\]yy	1ff#myy	2D/	-cem	2A/]	.	4e\]	.	1ryy	4ee\]	1ff#m
.	.	4dd\yy	.	.	.	.	.	4d\	.	.	4dd\	.
2GG#X/	2	[y2dd\yy	.	2GG#X/	da	2B\	.	[<2dM\	-cem	.	2ddM\	.
=26	=26	=26	=26	=26	=26	=26	=26	=26	=26	=26	=26	=26
4AA/	.	4dd\]yy	4ee\yy	4AA/	pa-	2A\	-cem	4d\]	.	1ryy	2a/	2ee\
4A\	.	2cc#\yy	4a/yy	4A\	.	.	.	4c#\	pa-	.	.	.
4Gn\	4 2	.	4ee\yy	4Gn\	.	2A\	da	4d\	.	.	2r	2r
4F#\	6	[y<4dd\yy	4gg\yy	4F#\	.	.	.	4f#\	.	.	.	.
!	!	!LO:LB:g=original	!	!LO:LB:g=original	!	!LO:LB:g=original	!	!	!	!	!	!
=27	=27	=27	=27	=27	=27	=27	=27	=27	=27	=27	=27	=27
!	!	!LO:TX:a:t=P:problem=brak zakończenia ligatury	!	!	!	!	!	!	!	!	!	!
2E\	2	4dd\]yy	2.gg\yy	2E\	-cem	2B\	pa-	2.g\	.	1ryy	00r	00r
.	.	8ee\Lyy	.	.	.	.	.	.	.	.	.	.
.	.	8dd\Jyy	.	.	.	.	.	.	.	.	.	.
2A\	2	[y2cc#\yy	.	2A\	da	[<2A\	.	.	.	.	.	.
.	.	.	8aa\Lyy	.	.	.	.	8a\L	.	.	.	.
.	.	.	8gg\Jyy	.	.	.	.	8g\J	.	.	.	.
!	!	!	!LO:LB:g=original	!	!	!	!	!LO:LB:g=original	!	!	!	!
=28	=28	=28	=28	=28	=28	=28	=28	=28	=28	=28	=28	=28
[<1D	2	4cc#\]yy	1ff#yy	[<1D	pa-	2A\]	.	1f#	.	1ryy	.	.
.	.	8dd\Lyy	.	.	.	.	.	.	.	.	.	.
.	.	8cc#\Jyy	.	.	.	.	.	.	.	.	.	.
.	6 5	4b\yy	.	.	.	[>2B\	.	.	.	.	.	.
.	.	4a\yy	.	.	.	.	.	.	.	.	.	.
=29	=29	=29	=29	=29	=29	=29	=29	=29	=29	=29	=29	=29
4D\]	4 2	2g#X/yy	1eeyy	4D\]	.	2B\]	.	[<1e	.	1ryy	.	.
8E\L	.	.	.	8E\L	.	.	.	.	.	.	.	.
8D\J	.	.	.	8D\J	.	.	.	.	.	.	.	.
4C#/	6	[y2a/yy	.	4C#/	.	2c#\	.	.	.	.	.	.
4AA/	.	.	.	4AA/	-[cem]	.	.	.	.	.	.	.
=30	=30	=30	=30	=30	=30	=30	=30	=30	=30	=30	=30	=30
2F#\	2	2a/]yy	4.ee\yy	2F#\	do-	2A\	.	2e\]	.	1ryy	.	.
.	6	.	8dd\yy	.	.	.	.	.	.	.	.	.
2G#X\	6 5	2bMy/yy	2ddMy\yy	2G#X\	-na	2d\	.	[2e\	-cem	.	.	.
=31	=31	=31	=31	=31	=31	=31	=31	=31	=31	=31	=31	=31
4A\	.	4cc#\yy	2cc#\yy	4A\	no-	4c#\	-cem	4e\]	.	1ryy	4r	4r
4A\	.	8a\Lyy	.	4A\	.	4e\	da	4a\	da	.	8a/L	8ee\L
.	.	8cc#\Jyy	.	.	.	.	.	.	.	.	8a/J	8ee\J
4c#\	.	4ee\yy	2ryy	(4c#\	-bis	2e\	pa-	2a\	no-	.	4a/	4ee\
4A\	.	4aa\yy	.	4A\)	.	.	.	.	.	.	4a/	4ee\
!	!	!	!	!	!	!	!	!	!	!	!	!LO:LB:g=original
=32	=32	=32	=32	=32	=32	=32	=32	=32	=32	=32	=32	=32
4e\	#	4gg#X\yy	4ryy	4e\	pa-	2e\	.	2g#X\	-bis	1ryy	2ee\	2ee\
4E\	.	4bb\yy	8ee\Lyy	4E\	.	.	.	.	.	.	.	.
.	.	.	8gg#X\Jyy	.	.	.	.	.	.	.	.	.
4G#X\	.	2ryy	4bb\yy	4G#X\	.	2e\	.	2g#\	pa-	.	4r	4r
4E\	.	.	4ddd\yy	4E\	.	.	.	.	.	.	4ee\	4gg#X\
=33	=33	=33	=33	=33	=33	=33	=33	=33	=33	=33	=33	=33
4A\	.	4ryy	4ccc#\yy	4A\	.	1e	.	1a	.	1ryy	4ee\	4aa\
4A 4AA\	.	8a\Lyy	4eee\yy	4AA/	.	.	.	.	.	.	8a/L	8ee\L
.	.	8cc#\Jyy	.	.	.	.	.	.	.	.	8a/J	8ee\J
4c# 4C#\	.	4ee\yy	2ryy	4C#/	.	.	.	.	.	.	4a/	4ee\
4A 4AA\	.	4aa\yy	.	4AA/	.	.	.	.	.	.	4a/	4ee\
!LO:LB:g=original	!	!	!	!LO:LB:g=original	!	!	!	!	!	!	!	!
=34	=34	=34	=34	=34	=34	=34	=34	=34	=34	=34	=34	=34
4e 4E\	.	4gg#X\yy	4ryy	4E\	.	2e\	.	2g#X\	.	1ryy	2ee\	2ee\
4E\	.	4bb\yy	8ee\Lyy	4E\	.	.	.	.	.	.	.	.
.	.	.	8gg#X\Jyy	.	.	.	.	.	.	.	.	.
4G#X\	.	4ryy	4bb\yy	4G#X\	.	2B\	.	2g#\	.	.	4r	4r
4E\	.	4gg#X\yy	4ddd\yy	4E\	.	.	.	.	.	.	4ee\	4gg#X\
!	!	!	!	!	!	!	!	!	!	!	!LO:LB:g=original	!
=35	=35	=35	=35	=35	=35	=35	=35	=35	=35	=35	=35	=35
4A\	.	2ee\yy	4ccc#\yy	4A\	.	2c#\	-cem	2a\	.	1ryy	2ee\	2aa\
4AA/	.	.	4ee\yy	4AA/	-cem	.	.	.	.	.	.	.
2A\	6	4ryy	[y2ff#my\yy	[<2A\	da	2e\	da	2a\	.	.	2r	2r
.	.	4cc#\yy	.	.	.	.	.	.	.	.	.	.
!	!	!LO:LB:g=original	!	!	!	!	!	!	!	!	!	!
=36	=36	=36	=36	=36	=36	=36	=36	=36	=36	=36	=36	=36
!	!	!	!LO:N:xstem:cue	!	!	!	!	!	!	!	!	!
2A\	4 2	2.b/yy	4ff#\]yy	2A\]	.	2d#X\	pa-	1b	.	1ryy	00r	00r
.	.	.	4dd#X\yy	.	.	.	.	.	.	.	.	.
[<2G#X\	6	.	[y<2ee\yy	[>2G#X\	pa-	2e\	.	.	.	.	.	.
.	.	4e/yy	.	.	.	.	.	.	.	.	.	.
!	!	!	!	!	!	!LO:LB:g=original	!	!	!	!	!	!
=37	=37	=37	=37	=37	=37	=37	=37	=37	=37	=37	=37	=37
!	!	!	!LO:N:xstem:cue	!	!	!	!	!	!	!	!	!
2G#\]	2	2.a/yy	4ee\]yy	2G#\]	.	2c#\	.	1a	.	1ryy	.	.
.	.	.	4cc#\yy	.	.	.	.	.	.	.	.	.
[<2F#\	6	.	[y<2ddn\yy	[<2F#\	.	2dn\	.	.	.	.	.	.
.	.	4d/yy	.	.	.	.	.	.	.	.	.	.
!	!	!	!LO:LB:g=original	!	!	!	!	!	!	!	!	!
=38	=38	=38	=38	=38	=38	=38	=38	=38	=38	=38	=38	=38
!	!	!	!LO:N:xstem:cue	!	!	!	!	!	!	!	!	!
!	!	!	!LO:TX:a:t=P:problem=brak zakończenia ligatury	!	!	!	!	!	!	!	!	!
2F#\]	#4 2	2.g#X/yy	4dd\]yy	2F#\]	.	2B\	.	1g#X	.	1ryy	.	.
.	.	.	4b\yy	.	.	.	.	.	.	.	.	.
[<2E\	6\	.	[y2cc#\yy	[<2E\	.	2c#\	.	.	.	.	.	.
.	.	4c#/yy	.	.	.	.	.	.	.	.	.	.
!	!	!	!	!	!	!	!	!LO:LB:g=original	!	!	!	!
=39	=39	=39	=39	=39	=39	=39	=39	=39	=39	=39	=39	=39
!	!	!	!LO:N:xstem:cue	!	!	!	!	!	!	!	!	!
2E\]	2	1f#yy	4cc#\]yy	2E\]	.	2A\	.	1f#	.	1ryy	.	.
.	6	.	2b/yy	.	.	.	.	.	.	.	.	.
2D#X\	6 5	.	.	2D#X\	.	2B\	.	.	.	.	.	.
.	.	.	4a/yy	.	.	.	.	.	.	.	.	.
=40	=40	=40	=40	=40	=40	=40	=40	=40	=40	=40	=40	=40
4E\	#	4B/yy	4g#X/yy	4E\	.	4B\	-cem	4e\	-cem	1ryy	1r	1r
4E\	.	4g#X/yy	4ee\yy	4E\	.	4r	.	4g#X\	pa-	.	.	.
4F#\	6	4a/yy	4dd#X\yy	4F#\	.	2r	.	4a\	.	.	.	.
!	!	!	!	!LO:SIC:s=4G#	!	!	!	!	!	!	!	!
4G#X\	6 n5	4b/yy	4ddn\yy	4G\	.	.	.	4b\	.	.	.	.
=41	=41	=41	=41	=41	=41	=41	=41	=41	=41	=41	=41	=41
4A\	.	4e/yy	4cc#\yy	4A\	.	4r	.	4e\	.	1ryy	2r	2r
4A\	.	4cc#\yy	4aa\yy	4A\	.	4c#\	pa-	4a\	.	.	.	.
4B\	6\	4dd\yy	4gg#X\yy	4B\	.	4d\	.	4g#X\	.	.	4r	4r
4c#\	.	4ee\yy	4ggn\yy	4c#\	.	4e\	.	4a\	.	.	4a/	4ee\
!	!	!	!	!LO:LB:g=original	!	!	!	!	!	!	!	!
=42	=42	=42	=42	=42	=42	=42	=42	=42	=42	=42	=42	=42
2d\	.	2a/yy	2ff#\yy	2d\	-cem	2d\	.	2a\	.	1ryy	2dd\	2ff#\
2G#X\	.	2b/yy	8ee\Lyy	2G#X\	da	2B\	-cem	2g#X\	.	.	2ee\	2ee\
.	.	.	8dd\yy	.	.	.	.	.	.	.	.	.
.	.	.	8cc#\yy	.	.	.	.	.	.	.	.	.
.	.	.	8b\Jyy	.	.	.	.	.	.	.	.	.
!LO:LB:g=original	!	!	!	!	!	!	!	!	!	!	!	!
=43	=43	=43	=43	=43	=43	=43	=43	=43	=43	=43	=43	=43
4A\	.	4e/yy	4cc#\yy	4A\	pa-	4c#\	do-	4a\	.	1ryy	2a/	2ee\
4A\	.	4cc#\yy	4aa\yy	4A\	.	4c#\	-na	4a\	.	.	.	.
4B\	.	4dd\yy	4gg#X\yy	4B\	.	4d\	no-	4g#X\	.	.	4r	4r
4c#\	.	4ee\yy	4ggn\yy	4c#\	.	4e\	-bis	4a\	.	.	4a/	4ee\
!	!	!	!	!	!	!	!	!	!	!	!	!LO:LB:g=original
=44	=44	=44	=44	=44	=44	=44	=44	=44	=44	=44	=44	=44
2d\	.	2a/yy	2ff#\yy	2d\	.	2d\	pa-	2a\	.	1ryy	2dd\	2ff#\
2G#X\	6	2b/yy	8ee\Lyy	2G#X\	.	2B\	.	4g#X\	.	.	2ee\	2ee\
.	.	.	8dd\yy	.	.	.	.	.	.	.	.	.
.	.	.	8cc#\yy	.	.	.	.	4e\	.	.	.	.
.	.	.	8b\Jyy	.	.	.	.	.	.	.	.	.
!	!	!	!	!	!	!LO:LB:g=original	!	!	!	!	!	!
=45	=45	=45	=45	=45	=45	=45	=45	=45	=45	=45	=45	=45
4A\	.	4e/yy	2a/yy	4A\	.	4c#\	.	2.a\	.	1ryy	4ee\	4ee\
4F#\	.	2a/yy	.	4F#\	.	4c#\	.	.	.	.	8ee\L	8ee\L
.	.	.	.	.	.	.	.	.	.	.	8ee\J	8ee\J
4D\	6 5	.	2bMy/yy	4D\	.	4f#\	.	.	.	.	4ee\	4ee\
4E\	.	4g#X/yy	.	4E\	.	4e\	.	4g#X\	.	.	4ee\	4ee\
=46	=46	=46	=46	=46	=46	=46	=46	=46	=46	=46	=46	=46
!	!	!	!LO:SIC:v:s=2a:t=lub 2e	!	!	!	!	!	!	!	!	!
2AA/	.	2a/yy	2f#/yy	2AA/	-cem	2e\	-cem	2a\	.	1ryy	2a/	2ee\
!	!	!	!	!	!	!	!	!LO:SIC:v:s=2g#\	!	!	!	!
2r	.	2g#X/yy	2ee\yy	2r	.	2r	.	2g\	.	.	2r	2r
!	!	!LO:LB:g=original	!	!	!	!	!	!LO:LB:g=original	!	!	!	!
=47	=47	=47	=47	=47	=47	=47	=47	=47	=47	=47	=47	=47
!	!	!	!	!	!	!	!	!	!	!	!LO:TX:a:t=2	!LO:TX:a:t=2
0r	.	2a/yy	4cc#\yy	0r	.	00r	.	2a\	-cem	1ryy	0r	0r
.	.	.	4a/yy	.	.	.	.	.	.	.	.	.
.	.	2c#/yy	[y<2aa\yy	.	.	.	.	2c#/	da	.	.	.
!	!	!	!LO:LB:g=original	!	!	!	!	!	!	!	!	!
=48	=48	=48	=48	=48	=48	=48	=48	=48	=48	=48	=48	=48
!	!	!	!LO:TX:a:t=P:problem=brak zakończenia ligatury	!	!	!	!	!	!	!	!	!
.	.	2d/yy	4aa\]yy	.	.	.	.	2d\	pa-	1ryy	.	.
.	.	.	8gg#X\Lyy	.	.	.	.	.	.	.	.	.
.	.	.	8ff#\Jyy	.	.	.	.	.	.	.	.	.
.	.	2e/yy	4ee\yy	.	.	.	.	2e\	.	.	.	.
.	.	.	4dd\yy	.	.	.	.	.	.	.	.	.
=49	=49	=49	=49	=49	=49	=49	=49	=49	=49	=49	=49	=49
4r	.	8a/Lyy	8cc#\Lyy	4r	.	.	.	8a\L	.	1ryy	4r	4r
.	.	8b/Jyy	8dd\Jyy	.	.	.	.	8b\J	.	.	.	.
4AA/	.	2cc#\yy	2ee\yy	4AA/	da	.	.	2cc#\	.	.	8a/L	8ee\L
.	.	.	.	.	.	.	.	.	.	.	8a/J	8ee\J
[<2A\	.	.	.	[<2A\	pa-	.	.	.	.	.	4a/	4ee\
.	.	4ee\yy	4ccc#\yy	.	.	.	.	4a\	.	.	4a/	4ee\
!	!	!	!	!	!	!	!	!	!	!	!LO:LB:g=original	!
=50	=50	=50	=50	=50	=50	=50	=50	=50	=50	=50	=50	=50
4A\]	4 2	4dd\yy	2bb\yy	4A\]	.	.	.	2f#\	.	1ryy	2dd\	2ff#\
8G#X\L	.	2dd\yy	.	8G#X\L	.	.	.	.	.	.	.	.
8F#\J	.	.	.	8F#\J	.	.	.	.	.	.	.	.
4E\	#	.	2gg#X\yy	4E\	.	.	.	2g#X\	.	.	2ee\	2gg#Xm\
4D\	.	4b\yy	.	4D\	.	.	.	.	.	.	.	.
!	!	!	!	!LO:LB:g=original	!	!	!	!	!	!	!	!
=51	=51	=51	=51	=51	=51	=51	=51	=51	=51	=51	=51	=51
4C#/	6	4a\yy	4aa\yy	4C#/	.	4r	.	4a\	-cem	1ryy	2ee\	2aa\
4AA/	.	8a\Lyy	8cc#\Lyy	4AA/	-cem	8A\L	da	4r	.	.	.	.
.	.	8b\Jyy	8dd\Jyy	.	.	8B\J	.	.	.	.	.	.
2r	.	4cc#\yy	4ee\yy	2r	.	4c#\	no-	2r	.	.	2r	2r
.	.	4dd\yy	4ff#\yy	.	.	4d\	-bis	.	.	.	.	.
=52	=52	=52	=52	=52	=52	=52	=52	=52	=52	=52	=52	=52
4r	.	2ee\yy	2gg\yy	4r	.	2e\	pa-	4r	.	1ryy	4r	4r
*	*	*	*	*	*	*	*	*	*ij	*	*	*
4c#\	6 n5	.	.	4c#\	do-	.	.	4b\	da	.	4ee\	4ggn\
4d\	.	2dd\yy	2ff#\yy	4d\	-na	2d\	.	4b\	pa-	.	2dd\	2ff#m\
4G#X\	2	.	.	4G#X\	[no]-	.	.	4b\	.	.	.	.
=53	=53	=53	=53	=53	=53	=53	=53	=53	=53	=53	=53	=53
!	!	!	!LO:TX:t=P:problem=brak taktów nr 53-54	!	!	!	!	!	!	!	!	!
2A\	.	4cc#\yy	1ryyyy	2A\	-bis	4c#\	.	2a\	-cem	1ryy	2a/	2ee\
.	.	8a\Lyy	.	.	.	8A\L	.	.	.	.	.	.
.	.	8b\Jyy	.	.	.	8B\J	.	.	.	.	.	.
2r	.	4cc#\yy	.	2r	.	4c#\	.	2r	.	.	4r	4r
.	.	4dd\yy	.	.	.	4d\	.	.	.	.	4ff#\	4aa\
!LO:LB:g=original	!	!	!	!	!	!	!	!	!	!	!	!LO:LB:g=original
=54	=54	=54	=54	=54	=54	=54	=54	=54	=54	=54	=54	=54
4r	.	4ee\yy	1ryyyy	4r	.	2.e\	.	4r	.	1ryy	2.ee\	2gg\
4c#\	6 n5	2ee\yy	.	4c#\	da	.	.	4a\	da	.	.	.
4d\	.	.	.	4d\	pa-	.	.	4a\	pa-	.	.	2ff#\
4G#X\	2	[y4dd\yy	.	4G#X\	.	[<4d\	.	4b\	-cem	.	4dd\	.
*	*	*	*	*	*	*	*	*	*Xij	*	*	*
!	!	!	!	!	!	!LO:LB:g=original	!	!LO:LB:g=original	!	!	!	!
=55	=55	=55	=55	=55	=55	=55	=55	=55	=55	=55	=55	=55
!	!	!	!	!	!	!LO:TX:a:t=P:problem=brak zakończenia ligatury	!	!	!	!	!	!
4A\	6 4	4dd\]yy	2ee\yy	4A\	.	4d\]	.	4a\	pa-	1ryy	2a/	4ee\
4A#X\	5	2cc#\yy	.	4A#X\	.	2c#\	.	2f#\	.	.	.	4r
4B\	#	.	2dd\yy	(4B\	.	.	.	.	.	.	2r	2r
4E#X\	2 #	4b\yy	.	4E\)	.	4B\	.	4g#X\	.	.	.	.
=56	=56	=56	=56	=56	=56	=56	=56	=56	=56	=56	=56	=56
4F#\	6 #	4a#X/yy	4cc#\yy	4F#\	.	4A#X\	.	4f#\	.	1ryy	0r	0r
4A#X\	5	2cc#\yy	4ee\yy	4A#X\	.	4c#\	.	4f#\	.	.	.	.
4B\	9	.	2ddMy\yy	4B\	.	(4c#\	.	4f#\	.	.	.	.
4E#X\	2 #	4bMy\yy	.	4E#X\	.	4B\)	.	4g#X\	.	.	.	.
!	!	!LO:LB:g=original	!	!	!	!	!	!	!	!	!	!
=57	=57	=57	=57	=57	=57	=57	=57	=57	=57	=57	=57	=57
*^	*	*	*	*	*	*	*	*	*	*	*	*
4F#\	4ryy	.	4a#X/yy	2cc#\yy	2F#\	-cem	4A#X\	-cem	4f#\	.	1ryy	.	.
*clefC3	*	*	*	*	*	*	*	*	*	*	*	*	*
2f#/	2f#\	.	2f#/yy	.	.	.	4r	.	2f#\	.	.	.	.
.	.	.	.	2ryy	2r	.	2r	.	.	.	.	.	.
4f#/	4f#\	.	4f#/yy	.	.	.	.	.	4f#\	.	.	.	.
!	!	!	!	!	!LO:LB:g=original	!	!	!	!	!	!	!	!
=58	=58	=58	=58	=58	=58	=58	=58	=58	=58	=58	=58	=58	=58
4d\	4ryy	.	4d/yy	4ryy	4r	.	0r	.	4d\	.	1ryy	1r	1r
!	!	!	!	!	!LO:N:vis=1	!	!	!	!	!	!	!	!
!	!	!	!	!	!LO:TX:a:t=1	!	!	!	!	!	!	!	!
2b/	4B\	.	4B/yy	2b/yy	2.r	.	.	.	4B\	.	.	.	.
.	4d\	.	4d/yy	.	.	.	.	.	(4d\	.	.	.	.
4b/	4e\	.	4e/yy	4b/yy	.	.	.	.	4e\)	.	.	.	.
=59	=59	=59	=59	=59	=59	=59	=59	=59	=59	=59	=59	=59	=59
!LO:SIC:s=4a#	!	!	!	!	!	!	!	!	!	!	!	!	!
4a/	4f#\	.	4f#/yy	4a#X/yy	4r	.	.	.	4f#\	.	1ryy	4r	4r
*clefF4	*	*	*	*	*	*	*	*	*	*	*	*	*
2F#\	4ryy	#	4a#X/yy	4f#/yy	2F#\	Do-	.	.	4a#X\	.	.	8f#/L	8f#/L
.	.	.	.	.	.	.	.	.	.	.	.	8f#/J	8f#/J
.	2ryy	.	4g#X/yy	4b/yy	.	.	.	.	4g#X\	.	.	4f#/	4f#/
!	!	!	!LO:TX:b:t=P:problem=# below	!	!	!	!	!	!	!	!	!	!
4F#\	.	.	4a#/yy	4cc#/yy	4F#\	-na	.	.	4a#\	.	.	4f#/	4f#/
*v	*v	*	*	*	*	*	*	*	*	*	*	*	*
!	!	!	!LO:LB:g=original	!	!	!	!	!	!	!	!	!
=60	=60	=60	=60	=60	=60	=60	=60	=60	=60	=60	=60	=60
4D\	6	1byy	1ddMyy	4D/	no-	1r	.	1b	.	1ryy	2f#/	2f#/
4BB\	.	.	.	4BB/	-bis	.	.	.	.	.	.	.
4D\	.	.	.	4D/	pa-	.	.	.	.	.	2r	2r
4E\	.	.	.	4E/	.	.	.	.	.	.	.	.
=61	=61	=61	=61	=61	=61	=61	=61	=61	=61	=61	=61	=61
4F#\	.	4a#X/yy	4cc#\yy	4F#\	-cem	4r	.	2a#X\	-cem	1ryy	2f#/	2f#/
*clefC4	*	*	*	*	*	*	*	*	*	*	*	*
4f# 4c#\	.	4a#/yy	4cc#\yy	4r	.	4f#\	da	.	.	.	.	.
4d\	6	4b/yy	4dd\yy	2r	.	4d\	no-	4r	.	.	2r	2r
4B\	.	[y>4dd/yy	4ff#\yy	.	.	4B\	-bis	4dd\	da	.	.	.
!LO:LB:g=original	!	!	!	!	!	!	!	!	!	!	!LO:LB:g=original	!
=62	=62	=62	=62	=62	=62	=62	=62	=62	=62	=62	=62	=62
!	!	!	!	!	!	!	!	!LO:TX:t=P:problem=triola zapisana jako ósemkowa w tt. nr 62, 64, 66	!	!	!	!
!	!	!	!	!	!	!	!	!LO:N:vis=12	!	!	!	!
!	!	!LO:TUP:a:problem=klamra łukowa	!	!	!	!	!	!LO:TUP:a:problem=klamra łukowa	!	!	!	!
1e	2	12dd\L]yy	[y<1ggyy	00r	.	1e	pa-	6dd\L	pa-	1ryy	00r	00r
.	.	12b\yy	.	.	.	.	.	.	.	.	.	.
!	!	!	!	!	!	!	!	!LO:N:vis=12	!	!	!	!
.	.	12an\Jyy	.	.	.	.	.	6b\	.	.	.	.
.	.	4g/yy	.	.	.	.	.	.	.	.	.	.
*	*	*	*	*	*	*	*	*Xtuplet	*	*	*	*
!	!	!	!	!	!	!	!	!LO:N:vis=12	!	!	!	!
.	.	.	.	.	.	.	.	6a\J	.	.	.	.
!	!	!	!	!	!	!	!	!LO:N:vis=12	!	!	!	!
!	!	!	!	!	!	!	!	!LO:TUP:a:problem=klamra łukowa	!	!	!	!
.	8	4ee\yy	.	.	.	.	.	6g\L	.	.	.	.
!	!	!	!	!	!	!	!	!LO:N:vis=12	!	!	!	!
.	.	.	.	.	.	.	.	6ee\	.	.	.	.
.	2	4dd\yy	.	.	.	.	.	.	.	.	.	.
!	!	!	!	!	!	!	!	!LO:N:vis=12	!	!	!	!
.	.	.	.	.	.	.	.	6b\J	.	.	.	.
!	!	!	!	!	!	!	!	!LO:LB:g=original	!	!	!	!
=63	=63	=63	=63	=63	=63	=63	=63	=63	=63	=63	=63	=63
!	!	!	!LO:TUP:a:problem=klamra łukowa	!	!	!	!	!	!	!	!	!
1A	2	1cc#yy	12gg\L]yy	.	.	1A	.	[<1cc#	.	1ryy	.	.
.	.	.	12ee\yy	.	.	.	.	.	.	.	.	.
.	.	.	12dd\Jyy	.	.	.	.	.	.	.	.	.
.	.	.	4cc#\|yy	.	.	.	.	.	.	.	.	.
.	8	.	4aa\|yy	.	.	.	.	.	.	.	.	.
.	2	.	4gg\|yy	.	.	.	.	.	.	.	.	.
=64	=64	=64	=64	=64	=64	=64	=64	=64	=64	=64	=64	=64
*	*	*	*	*	*	*	*	*tuplet	*	*	*	*
!	!	!	!	!	!	!	!	!LO:N:vis=12	!	!	!	!
!	!	!LO:TUP:a:problem=klamra łukowa	!	!	!	!	!	!LO:TUP:a:problem=klamra łukowa	!	!	!	!
1d	2	12cc#\Lyy	[y<1ff#yy	.	.	1d	.	6cc#\]L	.	1ryy	.	.
.	.	12a\yy	.	.	.	.	.	.	.	.	.	.
!	!	!	!	!	!	!	!	!LO:N:vis=12	!	!	!	!
.	.	12g\Jyy	.	.	.	.	.	6a\	.	.	.	.
.	.	4f#/|>yy	.	.	.	.	.	.	.	.	.	.
*	*	*	*	*	*	*	*	*Xtuplet	*	*	*	*
!	!	!	!	!	!	!	!	!LO:N:vis=12	!	!	!	!
.	.	.	.	.	.	.	.	6g\J	.	.	.	.
!	!	!	!	!	!	!	!	!LO:N:vis=12	!	!	!	!
.	.	4dd\|yy	.	.	.	.	.	6f#\L	.	.	.	.
!	!	!	!	!	!	!	!	!LO:N:vis=12	!	!	!	!
.	.	.	.	.	.	.	.	6dd\	.	.	.	.
.	.	4cc#\|yy	.	.	.	.	.	.	.	.	.	.
!	!	!	!	!	!	!	!	!LO:N:vis=12	!	!	!	!
.	.	.	.	.	.	.	.	6cc#\J	.	.	.	.
=65	=65	=65	=65	=65	=65	=65	=65	=65	=65	=65	=65	=65
!	!	!	!LO:TUP:a:problem=klamra łukowa	!	!	!	!	!	!	!	!	!
1G	2	[y1byy	12ff#\L]yy	.	.	1G	.	[<1b	.	1ryy	.	.
.	.	.	12dd\yy	.	.	.	.	.	.	.	.	.
.	.	.	12cc#\Jyy	.	.	.	.	.	.	.	.	.
.	.	.	4b\|yy	.	.	.	.	.	.	.	.	.
.	.	.	4gg\|yy	.	.	.	.	.	.	.	.	.
.	.	.	4ff#\|yy	.	.	.	.	.	.	.	.	.
=66	=66	=66	=66	=66	=66	=66	=66	=66	=66	=66	=66	=66
*	*	*Xtuplet	*	*	*	*	*	*	*	*	*	*
!	!	!LO:TUP:b:problem=klamra łukowa	!	!	!	!	!	!LO:N:vis=12	!	!	!	!
1c#	2	12b/L]yy	1eeyy	0r	.	1c#	.	6b\]L	.	1ryy	0r	0r
.	.	12g/yy	.	.	.	.	.	.	.	.	.	.
!	!	!	!	!	!	!	!	!LO:N:vis=12	!	!	!	!
.	.	12f#/Jyy	.	.	.	.	.	6g\	.	.	.	.
.	.	4e/yy	.	.	.	.	.	.	.	.	.	.
!	!	!	!	!	!	!	!	!LO:N:vis=12	!	!	!	!
.	.	.	.	.	.	.	.	6f#\J	.	.	.	.
!	!	!	!	!	!	!	!	!LO:N:vis=12	!	!	!	!
.	.	4cc#\yy	.	.	.	.	.	6e\L	.	.	.	.
!	!	!	!	!	!	!	!	!LO:N:vis=12	!	!	!	!
.	.	.	.	.	.	.	.	6cc#\	.	.	.	.
.	.	4b\yy	.	.	.	.	.	.	.	.	.	.
!	!	!	!	!	!	!	!	!LO:N:vis=12	!	!	!	!
.	.	.	.	.	.	.	.	6b\J	.	.	.	.
!	!	!LO:LB:g=original	!	!	!	!LO:LB:g=original	!	!	!	!	!	!
=67	=67	=67	=67	=67	=67	=67	=67	=67	=67	=67	=67	=67
!	!	!	!LO:TUP:a:problem=klamra łukowa	!	!	!	!	!	!	!	!	!
1F#	2 #	(y>1a#Xyy	12ee\Lyy	.	.	[1F#	.	1a#X	.	1ryy	.	.
.	.	.	12cc#\yy	.	.	.	.	.	.	.	.	.
.	.	.	12b\Jyy	.	.	.	.	.	.	.	.	.
.	.	.	4a#X/yy	.	.	.	.	.	.	.	.	.
.	.	.	4ff#\|yy	.	.	.	.	.	.	.	.	.
.	.	.	4ee\|yy	.	.	.	.	.	.	.	.	.
*clefF4	*	*	*	*	*	*	*	*	*	*	*	*
=68	=68	=68	=68	=68	=68	=68	=68	=68	=68	=68	=68	=68
2BB/	.	2b/)yy	2dd\yy	2BB/	Do-	1F#_	.	2b\	.	1ryy	2f#/	2f#/
2F#\	#	2a#X/yy	2cc#\yy	2F#\	-na	.	.	2a#X\	.	.	2f#/	2f#/
=69	=69	=69	=69	=69	=69	=69	=69	=69	=69	=69	=69	=69
4D/	.	2b/yy	2b\yy	4D/	no-	2F#/]	-cem	2b\	-cem	1ryy	2f#/	2f#/
4BB/	.	.	.	4BB/	-bis	.	.	.	.	.	.	.
[<2B\	.	2ryy	4ryy	[<2B\	pa-	2f#\	da	2r	.	.	4r	4r
.	.	.	4dd\yy	.	.	.	.	.	.	.	4f#/	4f#/
!	!	!	!LO:LB:g=original	!	!	!	!	!	!	!	!	!
=70	=70	=70	=70	=70	=70	=70	=70	=70	=70	=70	=70	=70
4B\]	4 2_	1ryy	4.cc#\yy	4B\]	.	(2e\	pa-	1r	.	1ryy	4f#/	4f#/
8A\L	.	.	.	8A\L	.	.	.	.	.	.	8f#/L	8f#/L
8G\J	.	.	(y16dd\LLyy	8G\J	.	.	.	.	.	.	8f#/J	8f#/J
.	.	.	16ee\JJ)yy	.	.	.	.	.	.	.	.	.
4F#\	#	.	4a#X/yy	4F#\	.	2c#\)	.	.	.	.	4f#/	4f#/
4E\	.	.	4cc#/yy	4E\	.	.	.	.	.	.	4f#/	4f#/
!	!	!	!	!LO:LB:g=original	!	!	!	!LO:LB:g=original	!	!	!	!LO:LB:g=original
=71	=71	=71	=71	=71	=71	=71	=71	=71	=71	=71	=71	=71
2D/	6	2b\yy	2f#/yy	2D/	.	2d\	-cem	2B/	do-	1ryy	2f#/	2f#/
2AA#X/	6 5	2ff#\yy	2ryy	2AA#X/	.	2r	.	2e\	-na	.	2r	2r
=72	=72	=72	=72	=72	=72	=72	=72	=72	=72	=72	=72	=72
4BB/	.	4dd\yy	2b\yy	2BB/	-cem	0r	.	4d\	no-	1ryy	2f#/	2f#/
8D/L	.	4b\yy	.	.	.	.	.	4B/	-bis	.	.	.
8C#/J	.	.	.	.	.	.	.	.	.	.	.	.
4D/	.	[y<2bb\yy	2ff#\yy	2r	.	.	.	[2b\	pa-	.	2r	2r
4BB/	.	.	.	.	.	.	.	.	.	.	.	.
=73	=73	=73	=73	=73	=73	=73	=73	=73	=73	=73	=73	=73
4r	.	4bb\]yy	4dd\yy	1r	.	.	.	4b\]	.	1ryy	00r	00r
4E\	5	8aa\Lyy	4b\yy	.	.	.	.	8a\L	.	.	.	.
.	.	8gg\Jyy	.	.	.	.	.	8g\J	.	.	.	.
4D\	6	4ff#\yy	[y<2bb\yy	.	.	.	.	4f#\	.	.	.	.
4C#\	2	4ee\yy	.	.	.	.	.	4e\	.	.	.	.
!LO:LB:g=original	!	!	!	!	!	!	!	!	!	!	!	!
=74	=74	=74	=74	=74	=74	=74	=74	=74	=74	=74	=74	=74
4BB/	.	4dd\yy	4bb\]yy	4r	.	4r	.	4d\	.	1ryy	.	.
4E\	6 5	2b/yy	8aa#X\Lyy	4E\	da	4e\	da	4g\	.	.	.	.
.	.	.	8gg\Jyy	.	.	.	.	.	.	.	.	.
4F#\	5 4	.	4ff#\yy	4F#\	pa-	4d\	pa-	4f#\	.	.	.	.
4FF#/	#	4a#X/yy	4ee\yy	4FF#/	.	4c#\	-cem	4e\	.	.	.	.
=75	=75	=75	=75	=75	=75	=75	=75	=75	=75	=75	=75	=75
4BB/	.	4f#/yy	4dd\yy	4BB/	.	4d\	pa-	4f#\	.	1ryy	.	.
4BB/	#	4dd#X\yy	4bb\yy	4BB/	.	2f#\	.	4b\	.	.	.	.
4C#/	6\ 4	4ee\yy	4aa#X\yy	4C#/	.	.	.	4a#X\	.	.	.	.
4D#X/	6 5	4ff#\yy	4aan\yy	4D#X/	.	4B\	.	4a#\	.	.	.	.
=76	=76	=76	=76	=76	=76	=76	=76	=76	=76	=76	=76	=76
2E\	3	2b\yy	8gg\Lyy	2E\	-cem	1B	.	2g\	-cem	1ryy	.	.
.	.	.	8ff#\yy	.	.	.	.	.	.	.	.	.
.	.	.	8ee\yy	.	.	.	.	.	.	.	.	.
.	.	.	8dd\Jyy	.	.	.	.	.	.	.	.	.
2G\	6	8ee\Lyy	8ee\Lyy	2G\	da	.	.	2e\	da	.	.	.
.	.	8dd\yy	8dd\yy	.	.	.	.	.	.	.	.	.
.	.	8cc#\yy	8cc#\yy	.	.	.	.	.	.	.	.	.
.	.	8b\Jyy	8b\Jyy	.	.	.	.	.	.	.	.	.
!	!	!	!	!	!	!LO:LB:g=original	!	!	!	!	!	!
=77	=77	=77	=77	=77	=77	=77	=77	=77	=77	=77	=77	=77
4A\	.	4cc#\yy	4cc#\yy	4A\	pa-	4c#\	.	4a\	[pa]-	1ryy	00r	00r
4AA/	.	4cc#\yy	4aa\yy	4AA/	.	2e\	.	4a\	.	.	.	.
4BB/	6\	4dd\yy	4gg#X\yy	4BB/	.	.	.	4g#X\	.	.	.	.
4C#/	6 n5	4ee\yy	4ggn\yy	4C#/	.	4c#\	.	4gn\	.	.	.	.
!	!	!LO:LB:g=original	!	!	!	!	!	!	!	!	!	!
=78	=78	=78	=78	=78	=78	=78	=78	=78	=78	=78	=78	=78
2D\	.	2a/yy	8ff#\Lyy	2D\	-cem	1A	.	2f#\	.	1ryy	.	.
.	.	.	8ee\yy	.	.	.	.	.	.	.	.	.
.	.	.	8dd\yy	.	.	.	.	.	.	.	.	.
.	.	.	8cc#\Jyy	.	.	.	.	.	.	.	.	.
!	!	!	!LO:PB:g=original	!	!	!	!	!	!	!	!	!
2F#\	6	8dd\Lyy	8dd\Lyy	2F#\	da	.	.	2d\	-cem	.	.	.
.	.	8cc#\yy	8cc#\yy	.	.	.	.	.	.	.	.	.
.	.	8b\yy	8b\yy	.	.	.	.	.	.	.	.	.
.	.	8a\Jyy	8a\Jyy	.	.	.	.	.	.	.	.	.
!	!	!	!	!LO:LB:g=original	!	!	!	!LO:LB:g=original	!	!	!	!
=79	=79	=79	=79	=79	=79	=79	=79	=79	=79	=79	=79	=79
4G\	.	4b\yy	4b\yy	4G\	pa-	1B	.	2.g\	do-	1ryy	.	.
4F#\	.	4a\yy	4dd\yy	4F#\	.	.	.	.	.	.	.	.
4E\	.	4b\yy	8gg\Lyy	4E\	.	.	.	.	.	.	.	.
.	.	.	8ff#\yy	.	.	.	.	.	.	.	.	.
4G\	.	4ee\yy	8ee\yy	4G\	.	.	.	4f#\	-na	.	.	.
.	.	.	8dd\Jyy	.	.	.	.	.	.	.	.	.
=80	=80	=80	=80	=80	=80	=80	=80	=80	=80	=80	=80	=80
2A\	.	4ee\yy	4cc#\yy	2A\	.	2c#\	.	2a\	no-	1ryy	.	.
.	.	4ryy	4ee\yy	.	.	.	.	.	.	.	.	.
2C#/	.	2ryy	8aa\Lyy	2C#/	.	2e\	.	2g\	.	.	.	.
.	.	.	8gg\yy	.	.	.	.	.	.	.	.	.
.	.	.	8ff#\yy	.	.	.	.	.	.	.	.	.
.	.	.	8ee\Jyy	.	.	.	.	.	.	.	.	.
=81	=81	=81	=81	=81	=81	=81	=81	=81	=81	=81	=81	=81
2D/	.	2a/yy	4ff#\yy	2D/	.	2d\	-cem	2f#\	-bis	1ryy	00r	00r
.	.	.	4dd\yy	.	.	.	.	.	.	.	.	.
2BB/	.	2dd\yy	4ff#\yy	2BB/	.	2r	.	2r	.	.	.	.
.	.	.	4gg#X\yy	.	.	.	.	.	.	.	.	.
=82	=82	=82	=82	=82	=82	=82	=82	=82	=82	=82	=82	=82
2AA/	.	4cc#\yy	2aa\yy	2AA/	.	0r	.	0r	.	1ryy	.	.
.	.	4a/yy	.	.	.	.	.	.	.	.	.	.
2C#/	.	[y<2aa\yy	4ryy	2C#/	.	.	.	.	.	.	.	.
.	.	.	4ee\yy	.	.	.	.	.	.	.	.	.
=83	=83	=83	=83	=83	=83	=83	=83	=83	=83	=83	=83	=83
2D\	.	4aa\]yy	2ff#\yy	2D/	.	.	.	.	.	1ryy	.	.
.	.	8gg#X\Lyy	.	.	.	.	.	.	.	.	.	.
.	6	8ff#\Jyy	.	.	.	.	.	.	.	.	.	.
2E\	6\	4ee\yy	2g#X/yy	2E/	.	.	.	.	.	.	.	.
.	.	4dd\yy	.	.	.	.	.	.	.	.	.	.
=84	=84	=84	=84	=84	=84	=84	=84	=84	=84	=84	=84	=84
4AA/	.	8dd\Lyy	2a/yy	4AA/	-cem	1r	.	1r	.	1ryy	.	.
.	.	8a\yy	.	.	.	.	.	.	.	.	.	.
4A\	.	8cc#\yy	.	4A\	da	.	.	.	.	.	.	.
.	.	8a\Jyy	.	.	.	.	.	.	.	.	.	.
4B\	2	8dd\Lyy	2ryy	4B\	pa-	.	.	.	.	.	.	.
.	.	8a\yy	.	.	.	.	.	.	.	.	.	.
4c#\	n5	8ee\yy	.	4c#\	.	.	.	.	.	.	.	.
.	.	8a\Jyy	.	.	.	.	.	.	.	.	.	.
!LO:LB:g=original	!	!	!	!	!	!	!	!	!	!	!	!
=85	=85	=85	=85	=85	=85	=85	=85	=85	=85	=85	=85	=85
!	!	!	!LO:TX:t=P:problem=zbędne pauzy w tt. 85-86	!	!	!	!	!	!	!	!	!
!LO:TX:t=P:problem=zbędne pauzy w vl 1	!	!LO:TX:t=P:problem=zbędne pauzy w vl 1	!LO:TX:a:t=2	!LO:TX:t=P:problem=zbędne pauzy w vl 1	!	!LO:TX:t=P:problem=zbędne pauzy w vl 1	!	!LO:TX:t=P:problem=zbędne pauzy w vl 1	!	!LO:TX:t=P:problem=zbędne pauzy w vl 1	!LO:TX:t=P:problem=zbędne pauzy w vl 1	!LO:TX:t=P:problem=zbędne pauzy w vl 1
1ryy	.	1ryyyy	1ryy	1ryy	.	1ryy	.	1ryy	.	1ryy	1ryy	1ryy
=86	=86	=86	=86	=86	=86	=86	=86	=86	=86	=86	=86	=86
1ryy	.	1ryyyy	1ryy	1ryy	.	1ryy	.	1ryy	.	1ryy	1ryy	1ryy
=87	=87	=87	=87	=87	=87	=87	=87	=87	=87	=87	=87	=87
*clefC4	*	*	*	*	*	*	*	*	*	*	*	*
2d\	.	2ff#\yy	2dd\yy	2d\	-cem	2d\	[da	2d\	do-	1ryy	0r	0r
2c#\	6	2ee\yy	2aa\yy	2r	.	2c#\	pa-	2a\	-na	.	.	.
=88	=88	=88	=88	=88	=88	=88	=88	=88	=88	=88	=88	=88
2d\	.	2ff#\yy	4ff#\yy	0r	.	2d\	-cem]	4f#\	no-	1ryy	.	.
.	.	.	4dd\yy	.	.	.	.	4d\	-bis	.	.	.
4r	.	4ryy	[y<2ddd\yy	.	.	4r	.	[<2dd\	pa-	.	.	.
4F#/	.	4a/yy	.	.	.	4F#/	pa-	.	.	.	.	.
!	!	!	!LO:LB:g=original	!	!	!	!	!	!	!	!	!
=89	=89	=89	=89	=89	=89	=89	=89	=89	=89	=89	=89	=89
!	!	!	!LO:TX:a:t=P:problem=brak zakończenia ligatury	!	!	!	!	!	!	!	!	!
2G/	6 5	2b\yy	4ddd\]yy	.	.	2G/	.	4dd\]	.	1ryy	1r	1r
.	.	.	8ccc#\Lyy	.	.	.	.	8cc#\L	.	.	.	.
.	.	.	8bb\Jyy	.	.	.	.	8b\J	.	.	.	.
2A/	.	2cc#\yy	4aa\yy	.	.	2A/	.	4a\	.	.	.	.
.	.	.	4gg\yy	.	.	.	.	4g\	.	.	.	.
!	!	!	!	!LO:LB:g=original	!	!	!	!	!	!	!	!
=90	=90	=90	=90	=90	=90	=90	=90	=90	=90	=90	=90	=90
*clefF4	*	*	*	*	*	*	*	*	*	*	*	*
2D\	.	2dd\yy	2ff#\yy	2D\	Do-	2A/	.	2f#\	.	1ryy	2dd\	2ff#\
2A\	.	2cc#my\yy	2eeMy\yy	2A\	-na	2A/	.	2e\	.	.	2a/	2ee\
!	!	!LO:PB:g=original	!	!	!	!LO:LB:g=original	!	!	!	!	!	!
=91	=91	=91	=91	=91	=91	=91	=91	=91	=91	=91	=91	=91
4F#\	6	8dd\Lyy	8ff#\Lyy	4F#\	no-	2A/	-cem	2d\	.	1ryy	2dd\	2ff#\
.	.	8ee\Jyy	8aa\Jyy	.	.	.	.	.	.	.	.	.
4D\	.	2ff#\yy	2aa\yy	4D\	-bis	.	.	.	.	.	.	.
[<2d\	.	.	.	[<2d\	.	2f#\	da	2a\	.	.	4r	2aa\
.	.	4ff#\yy	4ddd\yy	.	.	.	.	.	.	.	4ff#\	.
!	!	!	!	!	!	!	!	!LO:LB:g=original	!	!	!LO:LB:g=original	!
=92	=92	=92	=92	=92	=92	=92	=92	=92	=92	=92	=92	=92
4d\]	4 2_	2gg\yy	2bb\yy	4d\]	pa-	1e	pa-	2g\	.	1ryy	2ee\	2gg\
8c#\L	.	.	.	8c#\L	.	.	.	.	.	.	.	.
8B\J	.	.	.	8B\J	.	.	.	.	.	.	.	.
4A\	3_	2ee\yy	2ccc#\yy	4A\	.	.	.	2a\	.	.	2a/	2ee\
4G\	.	.	.	4G\	.	.	.	.	.	.	.	.
=93	=93	=93	=93	=93	=93	=93	=93	=93	=93	=93	=93	=93
2F#\	x	2dd\yy	4ddd\yy	2F#\	-cem	2f#\	-cem	2a\	-[cem]	1ryy	2dd\	4ff#\
.	.	.	8dd\Lyy	.	.	.	.	.	.	.	.	8dd\L
.	.	.	8ff#\Jyy	.	.	.	.	.	.	.	.	8dd\J
2D\	.	4ryy	4aa\yy	2D\	[da]	2f#\	[da	[<2a\	da	.	4dd\	4dd\
.	.	[y4aa\yy	4cccn\yy	.	.	.	.	.	.	.	4dd\	4dd\
=94	=94	=94	=94	=94	=94	=94	=94	=94	=94	=94	=94	=94
2.G\	9	4aa\]yy	4bb\yy	2.G\	pa-	1d	pa]-	2a\]	pa-	1ryy	2dd\	2dd\
.	8	8gg\Lyy	2bb\yy	.	.	.	.	.	.	.	.	.
.	.	8ff#\Jyy	.	.	.	.	.	.	.	.	.	.
.	.	4ee\yy	.	.	.	.	.	2g\	-cem	.	2r	2r
4F#\	.	4dd\yy	[y<4bb\yy	4F#\	.	.	.	.	.	.	.	.
=95	=95	=95	=95	=95	=95	=95	=95	=95	=95	=95	=95	=95
2E\	6 5	2cc#\yy	4bb\]yy	2E\	.	[<1c#	.	2r	.	1ryy	4r	4r
.	.	.	8cc#\Lyy	.	.	.	.	.	.	.	4gg\	4bb\
.	.	.	8ee\Jyy	.	.	.	.	.	.	.	.	.
*	*	*	*	*	*	*	*	*	*ij	*	*	*
2C#/	2	4ryy	4gg\yy	2C#/	.	.	.	2g\	da	.	4gg\	4bb\
.	.	[y<4gg\yy	4bb\yy	.	.	.	.	.	.	.	[4gg\	4bb\
!	!	!	!	!	!	!	!	!	!	!	!	!LO:LB:g=original
=96	=96	=96	=96	=96	=96	=96	=96	=96	=96	=96	=96	=96
2.F#\	9	4gg\]yy	4aa\yy	2.F#\	.	1c#]	.	2g\	pa-	1ryy	4gg\]	2aa\
.	8	8ff#\Lyy	2aa\yy	.	.	.	.	.	.	.	4ff#\	.
.	.	8ee\Jyy	.	.	.	.	.	.	.	.	.	.
.	.	4dd\yy	.	.	.	.	.	2f#\	-cem	.	2r	2r
4E\	.	4cc#\yy	[y<4aa\yy	4E\	.	.	.	.	.	.	.	.
!LO:LB:g=original	!	!	!	!	!	!	!	!	!	!	!	!
=97	=97	=97	=97	=97	=97	=97	=97	=97	=97	=97	=97	=97
2D/	6 5	2b\yy	4aa\]yy	2D/	.	[<1B	.	2r	.	1ryy	4r	4r
.	.	.	8b\Lyy	.	.	.	.	.	.	.	4ff#\	4aa\
*	*	*	*custos:cc	*	*	*	*	*	*	*	*	*
.	.	.	8dd\Jyy	.	.	.	.	.	.	.	.	.
!	!	!	!LO:LB:g=original	!	!	!	!	!	!	!	!	!
2BB/	2	4ryy	4ff#\yy	2BB/	.	.	.	2f#\	da	.	4ff#\	4aa\
.	.	[y<4ff#\yy	4aa\yy	.	.	.	.	.	.	.	[4ff#\	4aa\
!	!	!	!	!LO:LB:g=original	!	!	!	!	!	!	!	!
=98	=98	=98	=98	=98	=98	=98	=98	=98	=98	=98	=98	=98
2.E\	9	4ff#\]yy	4gg\yy	2.E\	.	1B]	.	2f#\	pa-	1ryy	4ff#\]	2gg\
.	8	8ee\Lyy	2gg\yy	.	.	.	.	.	.	.	4ee\	.
.	.	8dd\Jyy	.	.	.	.	.	.	.	.	.	.
.	.	4cc#\yy	.	.	.	.	.	2e\	-cem	.	2r	2r
*	*	*	*	*	*	*	*	*	*Xij	*	*	*
4D\	.	4b\yy	[y<4gg\yy	4D\	.	.	.	.	.	.	.	.
=99	=99	=99	=99	=99	=99	=99	=99	=99	=99	=99	=99	=99
2C#/	6 5	2a/yy	4gg\]yy	2C#/	.	[<1A	.	2r	.	1ryy	4r	4r
.	.	.	8a/Lyy	.	.	.	.	.	.	.	4ee\	4gg\
.	.	.	8cc#/Jyy	.	.	.	.	.	.	.	.	.
2AA/	2	4ryy	4ee\yy	2AA/	.	.	.	2e\	da	.	4ee\	4gg\
.	.	[y4ee\yy	4gg\yy	.	.	.	.	.	.	.	[4ee\	4gg\
!	!	!LO:LB:g=original	!	!	!	!	!	!	!	!	!LO:LB:g=original	!
=100	=100	=100	=100	=100	=100	=100	=100	=100	=100	=100	=100	=100
!	!	!LO:TX:a:t=P:problem=brak zakończenia ligatury	!	!	!	!	!	!	!	!	!LO:TX:a:t=P:problem=brak zakończenia ligatury	!
4D\	.	4ee\]yy	4ff#\yy	4D\	.	2A\]	.	4e\	no-	1ryy	4ee\]	2ff#\
4D\	.	4dd\yy	8dd\Lyy	4D\	.	.	.	4d\	-bis	.	4dd\	.
.	.	.	8ff#\Jyy	.	.	.	.	.	.	.	.	.
4F#\	.	2ryy	4aa\yy	4F#\	.	2d\	.	[2a\	pa-	.	4r	4r
4D\	.	.	4ddd\yy	4D\	.	.	.	.	.	.	4dd\	4ff#\
=101	=101	=101	=101	=101	=101	=101	=101	=101	=101	=101	=101	=101
4A\	.	4ryy	4ccc#\yy	4A\	.	1c#	.	1a]	.	1ryy	4a/	4ee\
4AA/	.	8a\Lyy	4eee\yy	4AA/	.	.	.	.	.	.	8a/L	8ee\L
.	.	8cc#\Jyy	.	.	.	.	.	.	.	.	8a/J	8ee\J
4C#/	.	4ee\yy	2ryy	4C#/	.	.	.	.	.	.	4a/	4ee\
4AA/	.	4gg\yy	.	4AA/	.	.	.	.	.	.	4a/	4ee\
!	!	!	!	!	!	!	!	!LO:LB:g=original	!	!	!	!
=102	=102	=102	=102	=102	=102	=102	=102	=102	=102	=102	=102	=102
4D\	.	4ff#\yy	4ryy	4D\	.	2d\	.	2a\	-cem	1ryy	2dd\	2ff#\
4D\	.	4aa\yy	8dd\Lyy	4D\	.	.	.	.	.	.	.	.
.	.	.	8ff#\Jyy	.	.	.	.	.	.	.	.	.
4F#\	.	2ryy	4aa\yy	4F#\	.	2d\	.	2a\	da	.	4r	4r
4D\	.	.	4ddd\yy	4D\	.	.	.	.	.	.	4dd\	4ff#\
=103	=103	=103	=103	=103	=103	=103	=103	=103	=103	=103	=103	=103
4A\	.	4ryy	4ccc#\yy	4A\	.	1c#	.	1a	pa-	1ryy	4a/	4ee\
4AA/	.	8a\Lyy	4eee\yy	4AA/	.	.	.	.	.	.	8a/L	8ee\L
.	.	8cc#\Jyy	.	.	.	.	.	.	.	.	8a/J	8ee\J
4C#/	.	4ee\yy	2ryy	4C#/	.	.	.	.	.	.	4a/	4ee\
4AA/	.	4gg\yy	.	4AA/	.	.	.	.	.	.	4a/	4ee\
!	!	!	!	!	!	!LO:LB:g=original	!	!	!	!	!	!LO:LB:g=original
=104	=104	=104	=104	=104	=104	=104	=104	=104	=104	=104	=104	=104
2D\	.	2ff#\yy	4ryy	2D\	-cem	2d\	-cem	2a\	.	1ryy	2dd\	2ff#\
.	.	.	4aa\yy	.	.	.	.	.	.	.	.	.
[<2d\	6	4ryy	[y2bb\yy	[<2d\	da	4r	.	[<2b\	.	.	2r	2r
.	.	4ff#\yy	.	.	.	4f#\	da	.	.	.	.	.
=105	=105	=105	=105	=105	=105	=105	=105	=105	=105	=105	=105	=105
!	!	!	!LO:N:xstem:cue	!	!	!	!	!	!	!	!	!
2d\]	4 2	2.ee\yy	4bb\]yy	2d\]	.	2g#X\	no-	2b\]	.	1ryy	00r	00r
.	.	.	4gg#X\yy	.	.	.	.	.	.	.	.	.
[<2c#\	.	.	[y<2aa\yy	[<2c#\	pa-	2a\	-bis	[<2a\	.	.	.	.
.	.	4a/yy	.	.	.	.	.	.	.	.	.	.
!	!	!	!LO:LB:g=original	!LO:LB:g=original	!	!	!	!	!	!	!	!
=106	=106	=106	=106	=106	=106	=106	=106	=106	=106	=106	=106	=106
!	!	!	!LO:N:xstem:cue	!LO:TX:a:t=P:problem=brak zakończenia ligatury	!	!	!	!	!	!	!	!
!	!	!	!LO:TX:a:t=P:problem=brak zakończenia ligatury	!	!	!	!	!	!	!	!	!
2c#\]	4 2	2.dd\yy	4aa\]yy	2c#\]	.	2f#\	pa-	2a\]	.	1ryy	.	.
.	.	.	4ff#\yy	.	.	.	.	.	.	.	.	.
[<2B\	6	.	[y<2ggn\yy	[<2B\	.	2gn\	.	[<2g\	.	.	.	.
.	.	4g/yy	.	.	.	.	.	.	.	.	.	.
=107	=107	=107	=107	=107	=107	=107	=107	=107	=107	=107	=107	=107
!	!	!	!LO:N:xstem:cue	!	!	!	!	!	!	!	!	!
2B\]	4 2	2.cc#\yy	4gg\]yy	2B\]	.	2e\	.	2g\]	.	1ryy	.	.
.	.	.	4ee\yy	.	.	.	.	.	.	.	.	.
[2A\	6	.	[y<2ff#\yy	[<2A\	.	2f#\	.	[<2f#\	.	.	.	.
.	.	4f#/yy	.	.	.	.	.	.	.	.	.	.
!LO:LB:g=original	!	!	!	!	!	!	!	!	!	!	!	!
=108	=108	=108	=108	=108	=108	=108	=108	=108	=108	=108	=108	=108
!LO:TX:a:t=P:problem=brak zakończenia ligatury	!	!	!	!	!	!	!	!	!	!	!	!
2A\]	4 2	1byy	4ff#\]yy	2A\]	-cem	2d\	.	2f#\]	.	1ryy	.	.
.	.	.	2ee\yy	.	.	.	.	.	.	.	.	.
4G\	6	.	.	4G\	da	2B\	.	[>2e\	.	.	.	.
4G#X\	.	.	4dd\yy	4G#X\	.	.	.	.	.	.	.	.
=109	=109	=109	=109	=109	=109	=109	=109	=109	=109	=109	=109	=109
4A\	.	4e/yy	4cc#\yy	4A\	pa-	4A\	.	4e\]	.	1ryy	2r	2r
4A\	.	4cc#\yy	4aa\yy	4A\	.	2d\	.	4a\	.	.	.	.
4B\	6\	4dd\yy	4gg#X\yy	(4B\	.	.	.	4g#X\	.	.	4r	4r
4c#\	5n	4ee\yy	4ggn\yy	4c#\)	.	4c#\	.	4gn\	.	.	4a/	4ee\
!	!	!LO:LB:g=original	!	!	!	!	!	!	!	!	!	!
=110	=110	=110	=110	=110	=110	=110	=110	=110	=110	=110	=110	=110
4d\	.	4a/yy	4ff#\yy	4d\	-cem	4A\	.	4f#\	.	1ryy	2dd\	2ff#\
4D\	.	4ff#\yy	4ddd\yy	4D\	da	4d\	.	4a\	.	.	.	.
4E\	.	4gg\yy	4ccc#\yy	4E\	.	4c#X\	.	4g\	.	.	4r	4r
4F#\	n5	4aa\yy	4cccn\yy	4F#\	.	4cn\	.	4a\	.	.	4dd\	4aa\
!	!	!	!	!	!	!	!	!LO:LB:g=original	!	!	!	!
=111	=111	=111	=111	=111	=111	=111	=111	=111	=111	=111	=111	=111
2G\	.	2dd\yy	2bb\yy	2G\	[pa]-	2B\	-cem	2b\	-cem	1ryy	2dd\	2gg\
2C#/	.	2ee\yy	8aa\Lyy	2C#/	.	2B\	[da	2g\	da	.	2a/	2ee\
.	.	.	8gg\yy	.	.	.	.	.	.	.	.	.
.	.	.	8ff#\yy	.	.	.	.	.	.	.	.	.
.	.	.	8ee\Jyy	.	.	.	.	.	.	.	.	.
!	!	!	!	!	!	!	!	!	!	!	!LO:LB:g=original	!
=112	=112	=112	=112	=112	=112	=112	=112	=112	=112	=112	=112	=112
4D\	.	4ff#\yy	4dd\yy	4D\	.	4A\	pa]-	4f#\	pa-	1ryy	2dd\	2ff#\
4D\	.	4ff#\yy	4ddd\yy	4D\	.	4d\	.	4a\	.	.	.	.
4E\	6	4gg\yy	4ccc#\yy	4E\	.	4c#X\	.	4g\	.	.	4r	4r
4F#\	n5	4aa\yy	4cccn\yy	4F#\	.	4cn\	.	4a\	.	.	4dd\	4aa\
!	!	!	!	!LO:LB:g=original	!	!LO:LB:g=original	!	!	!	!	!	!
=113	=113	=113	=113	=113	=113	=113	=113	=113	=113	=113	=113	=113
2G\	.	2dd\yy	2bb\yy	2G\	-cem	2B\	.	2b\	.	1ryy	2dd\	2gg\
2C#/	6	2ee\yy	8aa\Lyy	2C#/	da	2A\	.	2g\	.	.	2a/	2ee\
.	.	.	8gg\yy	.	.	.	.	.	.	.	.	.
.	.	.	8ff#\yy	.	.	.	.	.	.	.	.	.
.	.	.	8ee\Jyy	.	.	.	.	.	.	.	.	.
=114	=114	=114	=114	=114	=114	=114	=114	=114	=114	=114	=114	=114
4D\	.	4dd\yy	4ff#\|yy	4D\	pa-	4A\	.	4f#\	.	1ryy	2dd\	2ff#\
4d\	.	2a/yy	(y4ff#\yy	4d\	.	4A\	.	2a\	.	.	.	.
4c#\	6	.	4ee\yy	4c#\	.	4c#\	.	.	.	.	4r	4r
4cn\	4 2	4dd\yy	4ff#\)yy	4cn\	.	4d\	.	4a\	.	.	4dd\	4dd\
!	!	!	!LO:LB:g=original	!	!	!	!	!	!	!	!	!
=115	=115	=115	=115	=115	=115	=115	=115	=115	=115	=115	=115	=115
2B\	6	1ddMyy	2gg\yy	2B\	-cem	1d	.	2b\	.	1ryy	4dd\	4dd\
.	.	.	.	.	.	.	.	.	.	.	8dd\L	8dd\L
.	.	.	.	.	.	.	.	.	.	.	8dd\J	8dd\J
2B-X\	6\	.	2gg#X\yy	2B-X\	da	.	.	2dd\	.	.	4dd\	4dd\
.	.	.	.	.	.	.	.	.	.	.	4dd\	4dd\
!	!	!	!	!	!	!	!	!	!	!	!	!LO:LB:g=original
=116	=116	=116	=116	=116	=116	=116	=116	=116	=116	=116	=116	=116
4A\	#	4cc#\yy	4aa\yy	4A\	pa-	4e\	.	4cc#\	.	1ryy	4a/	4ee\
4D\	.	4dd\yy	4ff#\yy	4D\	.	4d\	.	4a\	.	.	4dd/	4ff#\
4A\	.	2cc#my\yy	2ee\yy	4A\	.	2c#\	.	2a\	.	.	2a/	2eeM\
4AA/	.	.	.	4AA/	.	.	.	.	.	.	.	.
=117	=117	=117	=117	=117	=117	=117	=117	=117	=117	=117	=117	=117
2D\	8	4dd\yy	4dd\yy	2D/	-cem	4d\	.	4a\	.	1ryy	2dd\	2ff#\
.	2 4	4f#/yy	4dd\yy	.	.	4f#\	.	4a\	.	.	.	.
2D\	n2 5	4e/yy	4cc#\yy	2D/	da	4e\	.	4g\	.	.	4r	4r
.	.	4f#/yy	4ccn\yy	.	.	4f#\	.	4a\	.	.	4d/	4d/
!LO:LB:g=original	!	!	!	!	!	!	!	!	!	!	!	!
=118	=118	=118	=118	=118	=118	=118	=118	=118	=118	=118	=118	=118
2G\	.	2g/yy	2b/yy	2G\	pa-	2d\	.	2g\	.	1ryy	4d/	4d/
.	.	.	.	.	.	.	.	.	.	.	8d/L	8d/L
.	.	.	.	.	.	.	.	.	.	.	8d/J	8d/J
2D\	.	2f#/yy	2a/yy	2D\	.	2d\	.	2f#\	.	.	4d/	4d/
.	.	.	.	.	.	.	.	.	.	.	4d/	4d/
!	!	!	!	!	!	!	!	!LO:LB:g=original	!	!	!	!
=119	=119	=119	=119	=119	=119	=119	=119	=119	=119	=119	=119	=119
1GG	.	1gyy	1byy	1GG	.	1d	.	1g	.	1ryy	1d	2d/
.	.	.	.	.	.	.	.	.	.	.	.	2d/
=120	=120	=120	=120	=120	=120	=120	=120	=120	=120	=120	=120	=120
1GG	.	1gyy	1byy	1GG	.	1d	.	1g	.	1ryy	1d	1d
=121	=121	=121	=121	=121	=121	=121	=121	=121	=121	=121	=121	=121
!	!	!	!LO:TX:t=P:problem=brak kreski taktowej	!	!	!	!	!	!	!	!	!
!	!	!	!LO:N:vis=2	!	!	!LO:SIC:v:s=1d	!	!	!	!	!	!
1D	.	1f#yy	1ayy	1D	.	1c#	.	1f#	.	1ryy	1d	1d
!	!	!	!	!	!	!	!	!	!	!	!LO:LB:g=original	!
=122	=122	=122	=122	=122	=122	=122	=122	=122	=122	=122	=122	=122
!LO:TX:t=P:problem=zbędne powtórzenie w cor 2	!	!LO:TX:t=P:problem=zbędne powtórzenie w cor 2	!LO:TX:t=P:problem=zbędne powtórzenie w cor 2	!LO:TX:t=P:problem=zbędne powtórzenie w cor 2	!	!LO:TX:t=P:problem=zbędne powtórzenie w cor 2	!	!LO:TX:t=P:problem=zbędne powtórzenie w cor 2	!	!LO:TX:t=P:problem=zbędne powtórzenie w cor 2	!LO:TX:t=P:problem=zbędne powtórzenie taktu nr 121	!LO:TX:t=P:problem=zbędne powtórzenie w cor 2
1ryy	.	1ryyyy	1ryyyy	1ryy	.	1ryy	.	1ryy	.	1ryy	1d	1ryy
=123	=123	=123	=123	=123	=123	=123	=123	=123	=123	=123	=123	=123
!LO:TX:b:i:t=Finis Corona	!	!	!LO:N:vis=2	!	!	!LO:SIC:v:s=1d	!	!	!	!	!	!
1D;;	.	1f#;yy	1a;yy	1D;;	-cem	1c#;	-cem	1f#;	-cem	1ryy	1d;	1d;;
==	==	==	==	==	==	==	==	==	==	==	==	==
*-	*-	*-	*-	*-	*-	*-	*-	*-	*-	*-	*-	*-
!!!system-decoration: [(g1)][(g2)][(g3)]<s9>
!!!RDF**kern: > = above
!!!RDF**kern: < = below
!!!RDF**kern: | = vertical stroke
!!!RDF**dynam: f = "for"
!!!RDF**dynam: p = "pia"
!!!ENC: Andrzej Kubiczek
!!!END: 2020-12-23
!!!ENC: Andrzej Kubiczek
!!!END: 2022-01-11
!!!YEC: Copyright 2022 Narodowy Instytut Fryderyka Chopina (https://polishscores.org)
!!!YEM: Licence CC BY 4.0 (https://creativecommons.org/licenses/by/4.0)
